modules/linearicons/icons/file-add.svg

<?xml version="1.0" encoding="utf-8"?>
<!-- Generated by IcoMoon.io -->
<!DOCTYPE svg PUBLIC "-//W3C//DTD SVG 1.1//EN" "http://www.w3.org/Graphics/SVG/1.1/DTD/svg11.dtd">
<svg version="1.1" xmlns="http://www.w3.org/2000/svg" xmlns:xlink="http://www.w3.org/1999/xlink" width="20" height="20" viewBox="0 0 20 20">
<path fill="#000000" d="M17.854 5.646l-4.5-4.5c-0.094-0.094-0.221-0.146-0.354-0.146h-9.5c-0.827 0-1.5 0.673-1.5 1.5v16c0 0.827 0.673 1.5 1.5 1.5h13c0.827 0 1.5-0.673 1.5-1.5v-12.5c0-0.133-0.053-0.26-0.146-0.354zM16.793 6h-3.293c-0.276 0-0.5-0.224-0.5-0.5v-3.293l3.793 3.793zM16.5 19h-13c-0.276 0-0.5-0.224-0.5-0.5v-16c0-0.276 0.224-0.5 0.5-0.5h8.5v3.5c0 0.827 0.673 1.5 1.5 1.5h3.5v11.5c0 0.276-0.224 0.5-0.5 0.5z"></path>
<path fill="#000000" d="M11.5 13h-2.5v-2.5c0-0.276-0.224-0.5-0.5-0.5s-0.5 0.224-0.5 0.5v2.5h-2.5c-0.276 0-0.5 0.224-0.5 0.5s0.224 0.5 0.5 0.5h2.5v2.5c0 0.276 0.224 0.5 0.5 0.5s0.5-0.224 0.5-0.5v-2.5h2.5c0.276 0 0.5-0.224 0.5-0.5s-0.224-0.5-0.5-0.5z"></path>
</svg>

<svg xmlns="http://www.w3.org/2000/svg" width="20" height="20"><path d="M17.854 5.646l-4.5-4.5A.5.5 0 0 0 13 1H3.5C2.673 1 2 1.673 2 2.5v16c0 .827.673 1.5 1.5 1.5h13c.827 0 1.5-.673 1.5-1.5V6a.504.504 0 0 0-.146-.354zM16.793 6H13.5a.5.5 0 0 1-.5-.5V2.207L16.793 6zM16.5 19h-13a.5.5 0 0 1-.5-.5v-16a.5.5 0 0 1 .5-.5H12v3.5c0 .827.673 1.5 1.5 1.5H17v11.5a.5.5 0 0 1-.5.5z"/><path d="M11.5 13H9v-2.5a.5.5 0 0 0-1 0V13H5.5a.5.5 0 0 0 0 1H8v2.5a.5.5 0 0 0 1 0V14h2.5a.5.5 0 0 0 0-1z"/></svg>
